!!!NB:Melody moves out of top-most voice
**kern	**kern	**kern	**kern	**harm
*staff4	*staff3	*staff2	*staff1	*staff1
=1-	=1-	=1-	=1-	=1-
*clefF4	*clefG2	*clefG2	*clefG2	*
*k[f#c#]	*k[f#c#]	*k[f#c#]	*k[f#c#]	*
*M6/8	*M6/8	*M6/8	*M6/8	*
*	*	*	*MM80	*
*D:	*D:	*D:	*D:	*D:
2.r	2.r	2.r	4.r	.
.	.	.	4r	.
.	.	.	8d/	I
=2	=2	=2	=2	=2
4.D'\	4.d'/	4.f#'/	8f#/L	I
.	.	.	8a/	.
.	.	.	8dd/J	.
4.D'\	4.d'/	4.f#'/	8ff#\L	.
.	.	.	8aa\	.
.	.	.	8ddd\J	.
=3	=3	=3	=3	=3
2.A'\	2.c#'/	2.g'/	8..aa\L	V7
.	.	.	32bb\LK	.
.	.	.	16.gg\	.
.	.	.	32bb\JJk	.
.	.	.	8ee\	.
.	.	.	8r	.
.	.	.	8c#/	.
=4	=4	=4	=4	=4
4.A'\	4.c#'/	4.g'/	8e/L	V7
.	.	.	8g/	.
.	.	.	8cc#/J	.
4.A'\	4.c#'/	4.g'/	8ee\L	.
.	.	.	8gg\	.
.	.	.	8eee\J	.
=5	=5	=5	=5	=5
!!linebreak:original
*	*clefF4	*	*	*
2.D'\	[4.D\	[4.a/	8..gg\L	I
.	.	.	32aa\LK	.
.	.	.	16.ff#\	.
.	.	.	32aa\JJk	.
.	8D\]	8a/]	8dd\	.
.	8r	8r	8r	.
*	*clefG2	*	*	*
.	8f#/	8a/	8dd\	I
=6	=6	=6	=6	=6
4r	8g/L	8b/L	8ee\L	I6
.	8f#/	8a/	8dd\	.
*clefG2	*	*	*	*
8f#/	8d/J	8a/J	8aa\J	.
4e/	4g/	4cc#\	8.aa\L	V43
.	.	.	32bb\LL	.
.	.	.	32gg\JJ	.
8d/	8a/	8dd\	8ff#\J	I
=7	=7	=7	=7	=7
4r	8g/L	8b/L	8ee\L	I
.	8f#/	8a/	8dd\	.
8f#/	8d/J	8a/J	8aa\J	.
4e/	4g/	4cc#\	8.aa\L	V43
.	.	.	32bb\LL	.
.	.	.	32gg\JJ	.
8d/	8a/	8dd\	8ff#\J	I
=8	=8	=8	=8	=8
!!linebreak:original
4r	8g/L	8b/L	8ee\L	I6
.	8f#/	8a/	8dd\	.
8c#/	8e/J	8a/J	8ee\J	V6
4d/	4d/	4a/	8.ff#\L	I
.	.	.	16bb\K	.
*clefF4	*	*	*	*
8B\	8e/	8dd\	8gg#\J	V43/V
=9	=9	=9	=9	=9
8A\L	8e/L	8cc#\L	8aa\L	V
8A\	8e/	8cc#\	8ccc#\	.
8A\J	8e/J	8cc#\J	8eee\J	.
4A'\	4.e'/	4.cc#'\	4.aa'\	.
8DD/	.	.	.	I
=10	=10	=10	=10	=10
8FF#/L	8r	8r	8r	.
8AA/	8a/L	8dd\L	8ff#\L	.
8D/J	8a/J	8dd\J	8ff#\J	.
8F#\L	8a/L	8dd\L	8ff#\L	.
8A\	8a/	8dd\	8ff#\	.
8d\J	8a/J	8dd\J	8ff#\J	.
=11	=11	=11	=11	=11
8..e\L	4a/	4cc#\	8..gg\L	V65
32f#\LK	.	.	32aa\LK	.
16.d\	8a/	8dd\	16.ff#\	.
32e\JJk	.	.	32gg\JJk	.
8c#\	4.a'/	4.ee'\	8ee\	.
8r	.	.	8r	.
8CC#/	.	.	8r	.
=12	=12	=12	=12	=12
!!pagebreak:original
8EE/L	8r	8r	8r	.
8GG/	8a/L	8ee\L	8gg\L	V7
8C#/J	8a/J	8ee\J	8gg\J	.
8E\L	8a/L	8ee\L	8gg\L	.
8G\	8a/	8ee\	8gg\	.
8c#\J	8a/J	8ee\J	8gg\J	.
=13	=13	=13	=13	=13
8..d\L	4a/	4dd\	8..ff#\L	I
32f#\LK	.	.	32aa\LK	.
16.e\	8a/	8cc#\	16.gg\	V43
32g\JJk	.	.	32bb\JJk	.
8f#\	4a'/	4dd'\	8aa\	I6
8r	.	.	8r	.
8r	8f#/	8a/	8dd\	.
=14	=14	=14	=14	=14
4r	8g/L	8b-/L	8cc#\L	viio43
.	8f#/	8a/	8dd\	I6
8f#\	8d/J	8a/J	[8aa\J	.
4e\	4g/	4cc#\	16aa\LL]	V43
.	.	.	16aa#\	.
.	.	.	16bb\	.
.	.	.	16gg\J	.
8d\	8a/	8dd\	8ff#\J	I
=15	=15	=15	=15	=15
!!linebreak:original
4r	8g/L	8b\L	8ee\L	I6
.	8f#/	8a\	8dd\	.
8d\	8f#/J	[8aa\J	[8aa\J	I
4c#\	8g/L	4.aa\_	16aa\LL]	V65
.	.	.	16ccc#\	.
.	8e/	.	16eee\	.
.	.	.	16ggg\J	.
8d\	8d/J	.	[8fff#\J	I
=16	=16	=16	=16	=16
*clefF4	*clefF4	*	*	*
4.G\	4.G\	8aa\L]	8fff#\L]	ii6
.	.	8gg\	8eee\	.
.	.	[8gg\J	[8eee\J	.
4.G#\	4.G#\	8gg\L]	8eee\L]	viiom7/V
.	.	8ff#\	8ddd\	.
.	.	[8ff#\J	[8ddd\J	.
=17	=17	=17	=17	=17
4A\	4A\	16ff#\LL]	16ddd\LL]	V
.	.	16ee\	16ccc#\	.
.	.	16dd\	16bb\	.
.	.	16cc#\J	16aa\J	.
8AA/	8A\	8cc#\J	8aa\J	.
4.AA'/	4A'\	4cc#'\	4.aa'\	V
*	*clefG2	*	*	*
*A:	*A:	*A:	*A:	*A:
.	8c#/	8A/	.	I
=18	=18	=18	=18	=18
!!linebreak:original
4.AA'/	8e/L	8c#/L	[2.ee\	I
.	8c#/	8e/	.	.
.	8a/J	8cc#/J	.	.
4.AA'/	8cc#/L	8ee/L	.	.
.	8a/	8cc#/	.	.
.	8A/J	8c#/J	.	.
=19	=19	=19	=19	=19
4.E'\	8G#/L	8B/L	2.ee\_	V7
.	8B/	8d/	.	.
.	8g#/J	8b/J	.	.
4.E'\	8b/L	8dd\L	.	.
.	8g#/	8b\	.	.
.	8d/J	8g#\J	.	.
=20	=20	=20	=20	=20
8AA/L	8c#/L	8a/L	8ee\L]	I
8AA/	8c#/	8e/	8aa\	.
8AA/J	8c#/J	8e/J	8aa\J	.
8AA/L	8c#/L	8e/L	4aa\	.
8AA/	8c#/	8e/	.	.
8AA/J	8c#/J	8e/J	8gg#\	.
=21	=21	=21	=21	=21
8AA/L	8d/L	8f#/L	8ff#\L	IV64
8AA/	8d/	8f#/	8ff#\	.
8AA/J	8d/J	8f#/J	8ff#\J	.
8AA/L	8d/L	8f#/L	8.ff#\L	.
8AA/	8d/	8f#/	.	.
.	.	.	32gg#\LL	.
.	.	.	32aa\	.
8AA/J	8d/J	8f#/J	32bb\	.
.	.	.	32ccc#\	.
.	.	.	32ddd\	.
.	.	.	32eee\JJJ	.
=22	=22	=22	=22	=22
!!pagebreak:original
8AA/L	4.d/	4.f#/	8fff#\L	IV64
8AA/	.	.	8eee\	.
8AA/J	.	.	8ddd\J	.
8AA/L	4.B/	4.g#/	8ddd\L	viio6
8AA/	.	.	8ccc#\	.
8AA/J	.	.	8ddd\J	.
=23	=23	=23	=23	=23
8AA/L	8c#/L	8a/L	8ccc#\L	I
8AA/	8e/	8a/	8ccc#\	.
8AA/J	8e/J	8a/J	8ccc#\J	.
8AA/L	8e/L	8a/L	4ccc#\	.
8AA/	8e/	8a/	.	.
8AA/J	8e/J	8a/J	8eee\	.
=24	=24	=24	=24	=24
8F#\L	[2.B/	2.a/	8ddd#\L	V43/V
8F#\	.	.	8ddd#\	.
8F#\J	.	.	8ddd#\J	.
8F#\L	.	.	16ddd#\LL	.
.	.	.	16fff#\	.
8F#\	.	.	16aaa\	.
.	.	.	16fff#\	.
8F#\J	.	.	16ddd#\	.
.	.	.	16fff#\JJ	.
=25	=25	=25	=25	=25
4.E'\	4B/]	4.g#'/	8eee\L	V
.	.	.	8ee\	.
.	8r	.	8ee\J	.
4.r	4.r	4.r	8ee\L	.
.	.	.	8ee\	.
.	.	.	8ee\J	.
=26	=26	=26	=26	=26
!!linebreak:original
4.r	4.r	8dd\L	8ee\L	V42
.	.	8dd\	8ee\	.
.	.	8dd\J	8ee\J	.
4r	4r	8dd\L	8ee\L	.
.	.	8dd\	8ee\	.
8G#\	8g#/	8dd\J	8ee\J	.
=27	=27	=27	=27	=27
4A#\	4a#/	8dd\L	8ee\L	.
.	.	8dd\	8ee\	.
8B\	8b\	8dd\J	8ee\J	.
4E'\	4e'/	8dd\L	8ee\L	.
.	.	8dd\	8ee\	.
8G#\	8g#/	8dd\J	8ee\J	.
=28	=28	=28	=28	=28
4A#\	4a#/	8dd\L	8ee\L	.
.	.	8dd\	8ee\	.
8B\	8b\	8dd\J	8ee\J	.
4E'\	4e'/	8dd\L	8ee\L	.
.	.	8dd\	8ee\	.
8G#\	8g#/	8dd\J	8ee\J	.
=29	=29	=29	=29	=29
4A#\	4a#/	8dd\L	8ee\L	.
.	.	8dd\	8ee\	.
8B\	8b\	8dd\J	8ee\J	.
8E\L	8e/L	8dd\L	8ee\L	.
8Fn\	8fn/	8dd\	8ee\	.
8F#\J	8f#/J	8dd\J	8ee\J	.
=30	=30	=30	=30	=30
8G\L	8g/L	8dd\L	8ee\L	V65
8G#\	8g#/	8dd\	8ee\	.
8A\J	8a/J	8cc#\J	8ee\J	I
8D\L	8f#/L	8b/L	8dd\L	ii6
8E\	8e/	8a/	8cc#\	C64
8E\J	8e/J	8g#/J	8b\J	V
=31	=31	=31	=31	=31
!!linebreak:original
4.A'\	8A/L	4.a'/	4.a'/	I
.	8e/	.	.	.
.	8e/J	.	.	.
4.r	8e/L	4.r	4.r	.
.	8e/	.	.	.
.	8e/J	.	.	.
=32	=32	=32	=32	=32
*clefG2	*	*	*	*
8d/L	8e/L	4.r	4.r	V42
8d/	8e/	.	.	.
8d/J	8e/J	.	.	.
8d/L	8e/L	4r	4r	.
8d/	8e/	.	.	.
8d/J	8e/J	8g#/	8gg#\	.
=33	=33	=33	=33	=33
8d/L	8e/L	4a#/	4aa#\	.
8d/	8e/	.	.	.
8d/J	8e/J	8b\	8bb\	.
8d/L	8e/L	4e'/	4ee'\	.
8d/	8e/	.	.	.
8d/J	8e/J	8g#/	8gg#\	.
=34	=34	=34	=34	=34
8d/L	8e/L	4a#/	4aa#\	.
8d/	8e/	.	.	.
8d/J	8e/J	8b\	8bb\	.
8d/L	8e/L	4e'/	4ee'\	.
8d/	8e/	.	.	.
8d/J	8e/J	8g#/	8gg#\	.
=35	=35	=35	=35	=35
8d/L	8e/L	4a#/	4aa#\	.
8d/	8e/	.	.	.
8d/J	8e/J	8b\	8bb\	.
8d/L	8e/L	8e/L	8ee\L	.
8d/	8e/	8fn/	8ffn\	.
8d/J	8e/J	8f#/J	8ff#\J	.
=36	=36	=36	=36	=36
!!pagebreak:original
8d/L	8e/L	8g/L	8gg\L	.
8d/	8e/	8g#/	8gg#\	.
8c#/J	8e/J	8a/J	8aa\J	I6
8d/L	8f#/L	8b/L	8dd\L	ii6
8e/	8e/	8a/	8cc#\	C64
*clefF4	*	*	*	*
8E/J	8d/J	8g#/J	8b\J	V7
=37	=37	=37	=37	=37
2.F#\	4.d/	4.g#/	4.b\	V7/ii
.	8e/L	8gn/L	4.a#/	.
.	8d/	8f#/	.	.
.	8c#/J	8e/J	.	.
=38	=38	=38	=38	=38
8D/L	8d/L	8f#/L	8b\L	ii6
8C#/	8e/	8e/	8cc#\	.
8BB/J	8f#/J	8d/J	8dd\J	.
4.E\	4e/	8.c#/L	8.a/L	C64
.	.	16d/K	16b/K	.
.	8d/	8B/J	8g#/J	V7
=39	=39	=39	=39	=39
[2.AA/	4c#/	4.A'/	8a/L	I
.	.	.	8a/	.
*	*clefF4	*	*	*
.	8C#/	.	8g#/J	.
.	4D\	4.r	4f#/	IV64
.	8E\	.	8e/	I
=40	=40	=40	=40	=40
!!linebreak:original
2.AA/]	4F#\	4.a/	4d/	IV64
.	8E\	.	8c#/	I
*	*	*	*clefF4	*
.	8D/L	8g#/L	8B\L	V42
.	8C#/	8a/	8A\	I6
.	8D/J	8b/J	8G#\J	viio
=41	=41	=41	=41	=41
8AA/L	8C#/L	8a/L	8A\L	I
8AA/	8C#/	8e/	8A\	.
8AA/J	8C#/J	8e/J	8A\J	.
4.AA'/	4.C#'/	4.e'/	4.A'\	.
*-	*-	*-	*-	*-
